X: 38073
T: Spirits Of Wine, The
R: reel
M: 4/4
K: Amajor
ed|:cBAc BGED|CEAc e2eg|aece a2ec|dcBA GBed|
cBAc BGED|CEAc e2eg|aece a2ec|A2AE A3e/f/:|
|:eccc c2ag|fddd d2af|eccc c2ec|dcBA BEGB|
eccc c2ag|fddd fgaf|eace dBGB|Aaec A3a/g/:|

